X:1
T:Title
%%score { ( 1 3 ) | ( 2 4 ) }
L:1/8
M:4/4
K:Db
V:1 treble nm="Grand Piano"
V:3 treble 
V:2 bass 
V:4 bass 
V:1
 z4 z2[Q:1/4=100] [DF]>[EG] | [FA]>[_F=G] [=FA]>[_GB] [FA]>F D>E | F2 [CE]2 D2 F>[FA] | %3
 [Fd]>[Fe] [Gd]>[GB] [FA]>F G>A | B2 E2 E2 E>F | G>F G>A G>E F>G | [FA]2 [_FB]2 [A,=FA]2 A>A | %7
 d>d c>B A [Ad]3 |[M:3/4] [=Ge]2 [E_Gc]2 [DFd]2 |[M:1/4] F>G | %10
[M:4/4] [FA]2- [B,F-A-]2 [FA]>B [Fc]>d | [A,CG]2 [CG]2 [A,CG]2 E>F | %12
 [EG]2- [B,E-G-]2 [EG]>A [GB]>c | F2 F2 z4 |[M:3/4] [DAd]>[Ae] [Ad]>[Ac] B2 |[M:1/4] B>B | %16
[M:4/4] [=Ge]>[Gf] [Ae]>[Bd] c2 B>A | [Fd]>[Gd] [Ad]>[FA] [GB] [Gd]3 | %18
[M:7/8] [=Ge]2 [_Gc]2 [Fd]3[Q:1/4=97][Q:1/4=94][Q:1/4=92][Q:1/4=89][Q:1/4=86][Q:1/4=83][Q:1/4=81][Q:1/4=78] |] %19
V:2
 z4 z2 [D,A,]>[D,A,] | [D,D]>[D,D] [D,D]>[D,D] [D,D]>[D,A,D] [F,A,]>[G,B,D] | %2
 [A,D]2 [A,,A,]2 [D,F,]2 [D,A,D]>[D,A,] | %3
 [D,A,]>[D,A,] [D,B,]>[D,C] [D,D]>[D,A,D] [E,A,D]>[F,A,D] | %4
 [G,D]2[K:treble] [=G,B,D]2 [A,C]2 [A,C]>[A,D] | %5
 [A,CE]>[A,C=D] [A,CE]>[A,CF][K:bass] [A,CE]>[G,A,C] [F,A,_D]>[E,A,E] | %6
 [D,A,]2 [D,=G,]2 D,2 A,>A, | [=G,B,_F]>[G,B,F] [G,CF]>[G,DF] [A,D=F][K:bass] [F,D]3 | %8
[M:3/4] [E,D]2 A,2 D,2 |[M:1/4] D>E |[M:4/4] D,2 D,2 z z/ F/ z z/ F/ | z z/ B,/ z z/ B,/ A,,2 C>D | %12
 A,,2 A,,2 z z/ F/ z z/ E/ | [D,A,D]2 [D,CD]2 [D,A,D]2 A,>A, | %14
[M:3/4] F,>[F,D] [F,D]>[F,D] [G,DG]2 |[M:1/4] B,>B, | %16
[M:4/4] [E,D]>[E,D] [F,C]>[K:treble][=G,E] [A,EA]2 [A,DG]>[A,CG] | %17
 [D,D]>[E,D] [F,D]>[D,D] [G,D] [G,B,]3 |[M:7/8] [E,D]2 [A,E]2 [D,D]3 |] %19
V:3
 x8 | x8 | x8 | x8 | x8 | x8 | x8 | x8 |[M:3/4] x6 |[M:1/4] x2 |[M:4/4] D2 z2 A,2 z2 | x8 | %12
 C2 z2 A,2 z2 | z z/ B,/ z z/ B,/ F2 A>A |[M:3/4] x6 |[M:1/4] x2 |[M:4/4] x8 | x8 |[M:7/8] x7 |] %19
V:4
 x8 | x8 | x8 | x8 | x2[K:treble] x6 | x4[K:bass] x4 | x8 | x5[K:bass] x3 |[M:3/4] x6 |[M:1/4] x2 | %10
[M:4/4] z4 D,2 [D,A,]2 | A,,2 A,,2 z4 | z4 A,,2 [A,,A,]2 | x8 |[M:3/4] x6 |[M:1/4] x2 | %16
[M:4/4] x7/2[K:treble] x9/2 | x8 |[M:7/8] x7 |] %19

